X:1
T:卡萨布兰卡
M:4/4
L:1/8
V:1
Q:1/4=80
K:C
|"Am"zEccc2BB-|"Am"BBB2A2GF-|"Dm"F2A6|z8|
|"G"z2BBB2A2|"G"A3GG3F|"Em"FEEGG4|"Em"z8|
|"E"EE2EE3^F|"E"^G2AB-B4|"Am"zEccB2c2|"Dm"d2c2B2A2|
|"G"z2BBB2BB|"G"c2B2AG-G2|A4z4|
|z6de|"Dm"f3edccB-|"G"B3BB2dd-|"C"de3z4|
|"A"z6ze|"Dm"f3ed2cB-|"G"B3BB2g2|"C"gde6|
|"Am"e3dc2BA-|A3AA2GF-|"Dm"FA3z4|z6zA|
|"G"ddddd3c|BAG2B2B2|"C"cBA6|